;FLAVOR:Marlin
;TIME:5724
;Filament used: 4.10453m
;Layer height: 0.2
;MINX:55.399
;MINY:20.947
;MINZ:0.2
;MAXX:142.454
;MAXY:78.816
;MAXZ:31.2
;Generated with Cura_SteamEngine 5.3.1
M140 S50
M105
M190 S50
M104 S200
M105
M109 S200
M82 ;absolute extrusion mode
; Ender 3 Custom Start G-code
G92 E0 ; Reset Extruder
G28 ; Home all axes
G1 Z2.0 F3000 ; Move Z Axis up little to prevent scratching of Heat Bed
G1 X0.1 Y20 Z0.3 F5000.0 ; Move to start position
G1 X0.1 Y200.0 Z0.3 F1500.0 E15 ; Draw the first line
G1 X0.4 Y200.0 Z0.3 F5000.0 ; Move to side a little
G1 X0.4 Y20 Z0.3 F1500.0 E30 ; Draw the second line
G92 E0 ; Reset Extruder
G1 Z2.0 F3000 ; Move Z Axis up little to prevent scratching of Heat Bed
G1 X5 Y20 Z0.3 F5000.0 ; Move over to prevent blob squish
G92 E0
G92 E0
G1 F2700 E-5
;LAYER_COUNT:156
;LAYER:0
M107
G0 F6000 X58.633 Y42.263 Z0.2
;TYPE:SKIRT
G1 F2700 E0
G1 F1200 X69.951 Y26.753 E0.63861
G1 X70.461 Y26.073 E0.66688
G1 X71.035 Y25.376 E0.69691
G1 X71.669 Y24.732 E0.72697
G1 X72.357 Y24.147 E0.75701
G1 X73.094 Y23.625 E0.78705
G1 X73.874 Y23.17 E0.81708
G1 X74.691 Y22.786 E0.8471
G1 X75.54 Y22.476 E0.87717
G1 X76.412 Y22.243 E0.90719
G1 X77.301 Y22.087 E0.93721
G1 X77.88 Y22.028 E0.95656
G1 X79.043 Y21.946 E0.99534
G1 X82.15 Y21.781 E1.09883
G1 X82.996 Y21.747 E1.12699
G1 X83.899 Y21.751 E1.15702
G1 X84.798 Y21.835 E1.18705
G1 X85.686 Y21.999 E1.21709
G1 X86.688 Y22.284 E1.25174
G1 X87.911 Y22.701 E1.29471
G1 X90.44 Y23.524 E1.38317
G1 X92.853 Y24.235 E1.46684
G1 X95.295 Y24.879 E1.55083
G1 X97.778 Y25.46 E1.63565
G1 X100.303 Y25.976 E1.72137
G1 X102.779 Y26.409 E1.80497
G1 X105.286 Y26.776 E1.88924
G1 X107.826 Y27.073 E1.9743
G1 X110.323 Y27.295 E2.05768
G1 X112.886 Y27.449 E2.14308
G1 X115.419 Y27.53 E2.22737
G1 X117.957 Y27.538 E2.31178
G1 X120.484 Y27.477 E2.39585
G1 X123.051 Y27.341 E2.48135
G1 X125.531 Y27.138 E2.56411
G1 X127.034 Y26.964 E2.61444
G1 X127.251 Y26.949 E2.62167
G1 X128.501 Y26.813 E2.66349
G1 X129.402 Y26.756 E2.69352
G1 X130.305 Y26.778 E2.72356
G1 X131.202 Y26.88 E2.75359
G1 X132.087 Y27.062 E2.78364
G1 X132.952 Y27.32 E2.81366
G1 X133.791 Y27.655 E2.84371
G1 X134.598 Y28.062 E2.87377
G1 X135.365 Y28.538 E2.9038
G1 X136.086 Y29.081 E2.93382
G1 X136.757 Y29.686 E2.96387
G1 X137.372 Y30.347 E2.9939
G1 X137.926 Y31.06 E3.02393
G1 X138.415 Y31.82 E3.05398
G1 X138.834 Y32.62 E3.08402
G1 X139.181 Y33.453 E3.11404
G1 X139.44 Y34.264 E3.14235
G1 X139.598 Y34.862 E3.16292
G1 X141.26 Y41.788 E3.39982
G1 X141.416 Y42.482 E3.42348
G1 X141.575 Y43.371 E3.45352
G1 X141.654 Y44.271 E3.48357
G1 X141.654 Y45.174 E3.5136
G1 X141.574 Y46.073 E3.54362
G1 X141.414 Y46.962 E3.57366
G1 X141.177 Y47.834 E3.60372
G1 X140.863 Y48.68 E3.63373
G1 X140.476 Y49.496 E3.66377
G1 X140.06 Y50.21 E3.69125
G1 X139.73 Y50.724 E3.71157
G1 X138.764 Y52.182 E3.76974
G1 X137.423 Y54.337 E3.85416
G1 X136.148 Y56.52 E3.93825
G1 X134.925 Y58.759 E4.0231
G1 X133.785 Y60.992 E4.10649
G1 X132.674 Y63.329 E4.19255
G1 X132.034 Y64.758 E4.24463
G1 X131.012 Y67.089 E4.32929
G1 X130.723 Y67.726 E4.35255
G1 X130.314 Y68.531 E4.38258
G1 X129.835 Y69.297 E4.41263
G1 X129.29 Y70.017 E4.44267
G1 X128.684 Y70.687 E4.47271
G1 X128.021 Y71.3 E4.50275
G1 X127.306 Y71.852 E4.53279
G1 X126.545 Y72.339 E4.56284
G1 X125.745 Y72.756 E4.59285
G1 X124.91 Y73.101 E4.62289
G1 X124.048 Y73.371 E4.65294
G1 X123.166 Y73.564 E4.68297
G1 X122.27 Y73.678 E4.71301
G1 X121.564 Y73.711 E4.73652
G1 X120.55 Y73.723 E4.77024
G1 X119.764 Y73.721 E4.79639
G1 X117.184 Y73.788 E4.88223
G1 X114.668 Y73.923 E4.96603
G1 X112.163 Y74.13 E5.04963
G1 X109.621 Y74.413 E5.1347
G1 X107.088 Y74.767 E5.21977
G1 X104.583 Y75.189 E5.30426
G1 X102.156 Y75.669 E5.38654
G1 X100.509 Y76.048 E5.44275
G1 X99.64 Y76.238 E5.47234
G1 X98.75 Y76.391 E5.50238
G1 X98.171 Y76.448 E5.52173
G1 X97.127 Y76.52 E5.55653
G1 X69.494 Y77.985 E6.4769
G1 X68.698 Y78.016 E6.5034
G1 X67.795 Y78.011 E6.53343
G1 X66.895 Y77.926 E6.5635
G1 X66.007 Y77.762 E6.59353
G1 X65.137 Y77.52 E6.62357
G1 X64.178 Y77.152 E6.65773
G1 X63.631 Y76.91 E6.67763
G1 X62.964 Y76.595 E6.70216
G1 X62.168 Y76.168 E6.7322
G1 X61.412 Y75.673 E6.76226
G1 X60.704 Y75.113 E6.79228
G1 X60.048 Y74.492 E6.82233
G1 X59.449 Y73.816 E6.85237
G1 X58.913 Y73.089 E6.88241
G1 X58.443 Y72.318 E6.91244
G1 X58.043 Y71.508 E6.94249
G1 X57.716 Y70.666 E6.97253
G1 X57.465 Y69.799 E7.00255
G1 X57.292 Y68.913 E7.03258
G1 X57.206 Y68.136 E7.05858
G1 X57.122 Y66.958 E7.09786
G1 X56.231 Y50.155 E7.65751
G1 X56.199 Y49.344 E7.68451
G1 X56.205 Y48.441 E7.71454
G1 X56.291 Y47.542 E7.74458
G1 X56.455 Y46.654 E7.77461
G1 X56.698 Y45.784 E7.80466
G1 X57.017 Y44.939 E7.8347
G1 X57.409 Y44.126 E7.86472
G1 X58.055 Y43.081 E7.90558
G1 X58.633 Y42.263 E7.93889
G0 F6000 X58.31 Y42.027
G1 F1200 X69.628 Y26.517 E8.5775
G1 X70.152 Y25.819 E8.60653
G1 X70.75 Y25.095 E8.63777
G1 X71.384 Y24.451 E8.66782
G1 X72.098 Y23.842 E8.69904
G1 X72.892 Y23.279 E8.73141
G1 X73.672 Y22.824 E8.76144
G1 X74.554 Y22.41 E8.79385
G1 X75.403 Y22.1 E8.82391
G1 X76.343 Y21.849 E8.85627
G1 X77.26 Y21.689 E8.88723
G1 X77.852 Y21.629 E8.90702
G1 X79.022 Y21.547 E8.94603
G1 X82.134 Y21.381 E9.04968
G1 X82.998 Y21.347 E9.07844
G1 X83.901 Y21.351 E9.10848
G1 X84.871 Y21.442 E9.14088
G1 X85.795 Y21.614 E9.17214
G1 X86.817 Y21.905 E9.20749
G1 X88.04 Y22.323 E9.25047
G1 X90.553 Y23.14 E9.33836
G1 X92.963 Y23.85 E9.42192
G1 X95.397 Y24.493 E9.50566
G1 X97.858 Y25.068 E9.58971
G1 X100.38 Y25.583 E9.67533
G1 X102.837 Y26.013 E9.75829
G1 X105.344 Y26.38 E9.84256
G1 X107.871 Y26.676 E9.92718
G1 X110.347 Y26.896 E10.00986
G1 X112.899 Y27.049 E10.09489
G1 X115.432 Y27.13 E10.17918
G1 X117.948 Y27.138 E10.26287
G1 X120.474 Y27.077 E10.34691
G1 X123.018 Y26.943 E10.43164
G1 X125.498 Y26.739 E10.5144
G1 X127.006 Y26.565 E10.56489
G1 X127.208 Y26.551 E10.57163
G1 X128.476 Y26.414 E10.61404
G1 X129.412 Y26.356 E10.64524
G1 X130.315 Y26.378 E10.67528
G1 X131.283 Y26.488 E10.70768
G1 X132.168 Y26.67 E10.73773
G1 X133.066 Y26.937 E10.76889
G1 X133.971 Y27.298 E10.8013
G1 X134.809 Y27.722 E10.83254
G1 X135.606 Y28.218 E10.86376
G1 X136.327 Y28.761 E10.89378
G1 X137.025 Y29.389 E10.92501
G1 X137.688 Y30.102 E10.95739
G1 X138.242 Y30.815 E10.98742
G1 X138.769 Y31.634 E11.01981
G1 X139.203 Y32.466 E11.05103
G1 X139.562 Y33.331 E11.08218
G1 X139.827 Y34.162 E11.11119
G1 X139.987 Y34.769 E11.13206
G1 X141.65 Y41.7 E11.36913
G1 X141.81 Y42.412 E11.39341
G1 X141.969 Y43.301 E11.42344
G1 X142.054 Y44.271 E11.45583
G1 X142.054 Y45.174 E11.48586
G1 X141.968 Y46.144 E11.51825
G1 X141.808 Y47.033 E11.54829
G1 X141.552 Y47.973 E11.5807
G1 X141.238 Y48.819 E11.61071
G1 X140.822 Y49.697 E11.64303
G1 X140.397 Y50.426 E11.67109
G1 X140.063 Y50.945 E11.69162
G1 X139.104 Y52.393 E11.74939
G1 X137.763 Y54.548 E11.8338
G1 X136.499 Y56.712 E11.91716
G1 X135.276 Y58.951 E12.00201
G1 X134.141 Y61.174 E12.08503
G1 X133.035 Y63.501 E12.17072
G1 X132.399 Y64.921 E12.22247
G1 X131.376 Y67.254 E12.3072
G1 X131.08 Y67.907 E12.33105
G1 X130.671 Y68.712 E12.36108
G1 X130.154 Y69.538 E12.39349
G1 X129.587 Y70.285 E12.42468
G1 X128.956 Y70.981 E12.45593
G1 X128.293 Y71.594 E12.48596
G1 X127.522 Y72.189 E12.51835
G1 X126.73 Y72.694 E12.54959
G1 X125.898 Y73.126 E12.58077
G1 X125.03 Y73.483 E12.61199
G1 X124.134 Y73.762 E12.6432
G1 X123.252 Y73.955 E12.67323
G1 X122.289 Y74.078 E12.70552
G1 X121.569 Y74.111 E12.7295
G1 X120.549 Y74.123 E12.76342
G1 X119.773 Y74.121 E12.78923
G1 X117.194 Y74.188 E12.87504
G1 X114.701 Y74.322 E12.95808
G1 X112.204 Y74.528 E13.04141
G1 X109.665 Y74.811 E13.12638
G1 X107.143 Y75.163 E13.21108
G1 X104.661 Y75.581 E13.29479
G1 X102.246 Y76.059 E13.37667
G1 X100.594 Y76.439 E13.43305
G1 X99.708 Y76.632 E13.46321
G1 X98.789 Y76.789 E13.49422
G1 X98.199 Y76.847 E13.51394
G1 X97.148 Y76.919 E13.54898
G1 X69.51 Y78.385 E14.46951
G1 X68.696 Y78.416 E14.49661
G1 X67.793 Y78.411 E14.52664
G1 X66.857 Y78.324 E14.55791
G1 X65.934 Y78.155 E14.58912
G1 X65.03 Y77.905 E14.62031
G1 X64.016 Y77.518 E14.65641
G1 X63.46 Y77.272 E14.67663
G1 X62.793 Y76.957 E14.70117
G1 X61.949 Y76.503 E14.73304
G1 X61.164 Y75.987 E14.76429
G1 X60.456 Y75.427 E14.79431
G1 X59.773 Y74.782 E14.82555
G1 X59.127 Y74.053 E14.85795
G1 X58.571 Y73.297 E14.88916
G1 X58.084 Y72.495 E14.92037
G1 X57.684 Y71.685 E14.95042
G1 X57.343 Y70.811 E14.98162
G1 X57.072 Y69.876 E15.014
G1 X56.894 Y68.957 E15.04513
G1 X56.807 Y68.164 E15.07167
G1 X56.723 Y66.979 E15.11118
G1 X55.831 Y50.171 E15.671
G1 X55.799 Y49.341 E15.69863
G1 X55.805 Y48.438 E15.72866
G1 X55.893 Y47.504 E15.75987
G1 X56.07 Y46.546 E15.79227
G1 X56.313 Y45.676 E15.82231
G1 X56.657 Y44.765 E15.8547
G1 X57.049 Y43.952 E15.88472
G1 X57.728 Y42.85 E15.92777
G1 X58.31 Y42.027 E15.9613
G0 F6000 X57.987 Y41.791
G1 F1200 X69.308 Y26.277 E16.60007
G1 X69.844 Y25.564 E16.62974
G1 X70.465 Y24.814 E16.66213
G1 X71.099 Y24.17 E16.69219
G1 X71.838 Y23.538 E16.72453
G1 X72.69 Y22.933 E16.75928
G1 X73.47 Y22.478 E16.78932
G1 X74.417 Y22.034 E16.8241
G1 X75.266 Y21.724 E16.85417
G1 X76.274 Y21.455 E16.88886
G1 X77.22 Y21.291 E16.9208
G1 X77.824 Y21.23 E16.94099
G1 X79.001 Y21.148 E16.98023
G1 X82.118 Y20.981 E17.08405
G1 X83 Y20.947 E17.11341
G1 X83.903 Y20.951 E17.14344
G1 X84.944 Y21.049 E17.17822
G1 X85.905 Y21.229 E17.21074
G1 X86.946 Y21.526 E17.24674
G1 X88.169 Y21.945 E17.28974
G1 X90.666 Y22.756 E17.37706
G1 X93.073 Y23.465 E17.46052
G1 X95.488 Y24.103 E17.5436
G1 X97.949 Y24.678 E17.62766
G1 X100.457 Y25.19 E17.7128
G1 X102.895 Y25.617 E17.79512
G1 X105.402 Y25.984 E17.87939
G1 X107.918 Y26.279 E17.96365
G1 X110.371 Y26.497 E18.04555
G1 X112.912 Y26.649 E18.13022
G1 X115.445 Y26.73 E18.21451
G1 X117.939 Y26.738 E18.29746
G1 X120.464 Y26.677 E18.38147
G1 X122.985 Y26.545 E18.46543
G1 X125.465 Y26.34 E18.5482
G1 X126.978 Y26.166 E18.59885
G1 X127.165 Y26.153 E18.60509
G1 X128.451 Y26.015 E18.64811
G1 X129.422 Y25.956 E18.68046
G1 X130.325 Y25.978 E18.7105
G1 X131.364 Y26.096 E18.74528
G1 X132.249 Y26.278 E18.77533
G1 X133.214 Y26.565 E18.80882
G1 X134.152 Y26.941 E18.84243
G1 X134.99 Y27.365 E18.87367
G1 X135.847 Y27.898 E18.90723
G1 X136.568 Y28.441 E18.93725
G1 X137.293 Y29.092 E18.96966
G1 X138.004 Y29.857 E19.0044
G1 X138.558 Y30.57 E19.03443
G1 X139.124 Y31.449 E19.0692
G1 X139.558 Y32.281 E19.10041
G1 X139.943 Y33.209 E19.13383
G1 X140.214 Y34.06 E19.16354
G1 X140.376 Y34.676 E19.18472
G1 X142.04 Y41.612 E19.42196
G1 X142.204 Y42.342 E19.44684
G1 X142.363 Y43.231 E19.47688
G1 X142.454 Y44.271 E19.5116
G1 X142.454 Y45.174 E19.54164
G1 X142.362 Y46.215 E19.5764
G1 X142.202 Y47.104 E19.60644
G1 X141.927 Y48.112 E19.64119
G1 X141.613 Y48.958 E19.6712
G1 X141.168 Y49.898 E19.7058
G1 X140.743 Y50.627 E19.73386
G1 X140.396 Y51.166 E19.75518
G1 X139.444 Y52.604 E19.81254
G1 X138.103 Y54.759 E19.89696
G1 X136.85 Y56.904 E19.97959
G1 X135.627 Y59.143 E20.06444
G1 X134.497 Y61.356 E20.14709
G1 X133.396 Y63.673 E20.23241
G1 X132.764 Y65.085 E20.28386
G1 X131.74 Y67.419 E20.36863
G1 X131.437 Y68.088 E20.39306
G1 X131.028 Y68.893 E20.42309
G1 X130.473 Y69.78 E20.45789
G1 X129.906 Y70.527 E20.48908
G1 X129.228 Y71.275 E20.52266
G1 X128.565 Y71.888 E20.55269
G1 X127.766 Y72.506 E20.58629
G1 X126.914 Y73.049 E20.61989
G1 X126.05 Y73.496 E20.65225
G1 X125.149 Y73.865 E20.68463
G1 X124.22 Y74.153 E20.71698
G1 X123.303 Y74.352 E20.74819
G1 X122.307 Y74.478 E20.78158
G1 X121.574 Y74.511 E20.80599
G1 X120.548 Y74.523 E20.84011
G1 X119.782 Y74.521 E20.86559
G1 X117.204 Y74.588 E20.95136
G1 X114.734 Y74.721 E21.03364
G1 X112.245 Y74.926 E21.1167
G1 X109.709 Y75.209 E21.20157
G1 X107.198 Y75.559 E21.2859
G1 X104.739 Y75.973 E21.36883
G1 X102.336 Y76.449 E21.45031
G1 X100.679 Y76.83 E21.50686
G1 X99.775 Y77.026 E21.53763
G1 X98.828 Y77.187 E21.56958
G1 X98.226 Y77.246 E21.58969
G1 X97.169 Y77.318 E21.62493
G1 X69.525 Y78.785 E22.54567
G1 X68.694 Y78.816 E22.57333
G1 X67.791 Y78.811 E22.60336
G1 X66.82 Y78.722 E22.63579
G1 X65.827 Y78.541 E22.66936
G1 X64.923 Y78.291 E22.70056
G1 X63.854 Y77.884 E22.7386
G1 X63.289 Y77.634 E22.75915
G1 X62.622 Y77.319 E22.78369
G1 X61.729 Y76.837 E22.81744
G1 X60.916 Y76.301 E22.84983
G1 X60.181 Y75.718 E22.88103
G1 X59.498 Y75.073 E22.91228
G1 X58.805 Y74.29 E22.94705
G1 X58.229 Y73.505 E22.97944
G1 X57.725 Y72.672 E23.01182
G1 X57.325 Y71.862 E23.04187
G1 X56.97 Y70.956 E23.07423
G1 X56.679 Y69.952 E23.109
G1 X56.496 Y69.001 E23.14121
G1 X56.408 Y68.192 E23.16828
G1 X56.324 Y67 E23.20802
G1 X55.431 Y50.186 E23.76804
G1 X55.399 Y49.338 E23.79627
G1 X55.405 Y48.435 E23.8263
G1 X55.495 Y47.466 E23.85867
G1 X55.685 Y46.438 E23.89344
G1 X55.928 Y45.568 E23.92348
G1 X56.297 Y44.591 E23.95822
G1 X56.708 Y43.742 E23.98959
G1 X57.401 Y42.619 E24.03348
G1 X57.987 Y41.791 E24.06722
G1 F2700 E19.06722
;MESH:head_bace.stl
G0 F6000 X77.598 Y55.705
G0 X83.633 Y62.057
;TYPE:WALL-INNER
G1 F2700 E24.06722
G1 F1200 X82.451 Y62.229 E24.10695
G1 X81.304 Y62.117 E24.14528
G1 X80.195 Y61.726 E24.18439
G1 X79.219 Y61.086 E24.22321
G1 X78.422 Y60.227 E24.26218
G1 X77.852 Y59.204 E24.30113
G1 X77.547 Y58.07 E24.34019
G1 X77.523 Y56.904 E24.37898
G1 X77.775 Y55.767 E24.41772
G1 X78.289 Y54.718 E24.45657
G1 X79.049 Y53.823 E24.49562
G1 X79.991 Y53.133 E24.53446
G1 X81.077 Y52.696 E24.57339
G1 X82.241 Y52.524 E24.61253
G1 X83.399 Y52.64 E24.65124
G1 X84.501 Y53.027 E24.69008
G1 X85.481 Y53.665 E24.72898
G1 X86.277 Y54.526 E24.76798
G1 X86.845 Y55.551 E24.80695
G1 X87.15 Y56.674 E24.84566
G1 X87.177 Y57.848 E24.88472
G1 X86.926 Y58.997 E24.92383
G1 X86.408 Y60.042 E24.96263
G1 X85.656 Y60.932 E25.00138
G1 X84.711 Y61.619 E25.04024
G1 X83.633 Y62.057 E25.07894
G1 F2700 E20.07894
G0 F6000 X85.781 Y61.065
G0 X86.047 Y66.091
G0 X97.697 Y65.429
G1 F2700 E25.07894
G1 F1200 X96.748 Y47.549 E25.67447
G1 X83.148 Y32.544 E26.34802
G1 X78.93 Y32.769 E26.48851
G1 X66.993 Y49.128 E27.16207
G1 X67.941 Y67.008 E27.7576
G1 X68.414 Y67.227 E27.77493
G1 X97.25 Y65.696 E28.73537
G1 X97.697 Y65.429 E28.75269
G0 F6000 X98.109 Y65.649
;TYPE:WALL-OUTER
G1 F1200 X97.14 Y47.386 E29.36097
G1 X83.317 Y32.134 E30.0456
G1 X78.719 Y32.379 E30.19875
G1 X66.586 Y49.007 E30.88337
G1 X67.555 Y67.27 E31.49166
G1 X68.336 Y67.631 E31.52027
G1 X97.37 Y66.09 E32.48731
G1 X98.109 Y65.649 E32.51593
G1 F2700 E27.51593
G0 F6000 X97.496 Y65.434
G0 X97.258 Y65.516
G0 X83.917 Y66.204
G0 X83.349 Y62.299
G0 X83.512 Y61.671
G1 F2700 E32.51593
G1 F1200 X82.458 Y61.825 E32.55136
G1 X81.39 Y61.724 E32.58704
G1 X80.374 Y61.366 E32.62287
G1 X79.479 Y60.778 E32.65849
G1 X78.747 Y59.99 E32.69426
G1 X78.234 Y59.069 E32.72932
G1 X77.952 Y58.04 E32.76481
G1 X77.921 Y56.943 E32.80131
G1 X78.15 Y55.901 E32.83679
G1 X78.636 Y54.926 E32.87303
G1 X79.321 Y54.116 E32.90831
G1 X80.19 Y53.484 E32.94405
G1 X81.181 Y53.082 E32.97962
G1 X82.24 Y52.927 E33.01522
G1 X83.312 Y53.029 E33.05103
G1 X84.324 Y53.386 E33.08672
G1 X85.222 Y53.974 E33.12243
G1 X85.954 Y54.76 E33.15815
G1 X86.475 Y55.702 E33.19395
G1 X86.754 Y56.732 E33.22945
G1 X86.779 Y57.809 E33.26528
G1 X86.551 Y58.847 E33.30062
G1 X86.072 Y59.819 E33.33666
G1 X85.382 Y60.637 E33.37226
G1 X84.511 Y61.269 E33.40805
G1 X83.512 Y61.671 E33.44387
G1 F2700 E28.44387
G0 F6000 X83.702 Y62.138
G0 X85.781 Y61.065
G0 X86.047 Y66.091
G0 X97.325 Y65.231
;TYPE:SKIN
G1 F2700 E33.44387
G1 F1200 X97.143 Y65.339 E33.4509
G1 X68.484 Y66.861 E34.40545
G1 X68.29 Y66.772 E34.41255
G1 X67.359 Y49.235 E34.99665
G1 X79.119 Y33.12 E35.66018
G1 X82.997 Y32.913 E35.78935
G1 X96.394 Y47.696 E36.4529
G1 X97.325 Y65.231 E37.03694
G1 F2700 E32.03694
G0 F6000 X97.585 Y65.218
G0 X97.264 Y65.499
G0 X83.877 Y66.206
G0 X83.31 Y62.305
G0 X83.729 Y62.404
G1 F2700 E37.03694
G1 F1200 X84.885 Y61.937 E37.07841
G1 X85.902 Y61.199 E37.1202
G1 X86.721 Y60.22 E37.16265
G1 X87.27 Y59.109 E37.20387
G1 X87.541 Y57.873 E37.24596
G1 X87.506 Y56.605 E37.28815
G1 X87.192 Y55.432 E37.32853
G1 X86.577 Y54.313 E37.371
G1 X85.715 Y53.388 E37.41306
G1 X84.665 Y52.699 E37.45483
G1 X83.476 Y52.281 E37.49675
G1 X82.225 Y52.164 E37.53854
G1 X81.001 Y52.34 E37.57967
G1 X79.819 Y52.815 E37.62204
G1 X78.784 Y53.573 E37.6647
G1 X77.986 Y54.52 E37.70589
G1 X77.426 Y55.648 E37.74778
