;FLAVOR:Marlin
;TIME:4493
;Filament used: 2.70861m
;Layer height: 0.2
;MINX:68.304
;MINY:24.684
;MINZ:0.2
;MAXX:171.932
;MAXY:94.173
;MAXZ:11.4
;Generated with Cura_SteamEngine 5.3.1
M140 S50
M105
M190 S50
M104 S200
M105
M109 S200
M82 ;absolute extrusion mode
; Ender 3 Custom Start G-code
G92 E0 ; Reset Extruder
G28 ; Home all axes
G1 Z2.0 F3000 ; Move Z Axis up little to prevent scratching of Heat Bed
G1 X0.1 Y20 Z0.3 F5000.0 ; Move to start position
G1 X0.1 Y200.0 Z0.3 F1500.0 E15 ; Draw the first line
G1 X0.4 Y200.0 Z0.3 F5000.0 ; Move to side a little
G1 X0.4 Y20 Z0.3 F1500.0 E30 ; Draw the second line
G92 E0 ; Reset Extruder
G1 Z2.0 F3000 ; Move Z Axis up little to prevent scratching of Heat Bed
G1 X5 Y20 Z0.3 F5000.0 ; Move over to prevent blob squish
G92 E0
G92 E0
G1 F2700 E-5
;LAYER_COUNT:58
;LAYER:0
M107
G0 F6000 X70.161 Y32.688 Z0.2
;TYPE:SKIRT
G1 F2700 E0
G1 F1200 X70.595 Y31.896 E0.03004
G1 X71.098 Y31.146 E0.06007
G1 X71.665 Y30.443 E0.09011
G1 X72.292 Y29.793 E0.12015
G1 X72.974 Y29.201 E0.15019
G1 X73.706 Y28.672 E0.18023
G1 X74.481 Y28.209 E0.21025
G1 X75.295 Y27.817 E0.2403
G1 X76.202 Y27.478 E0.27251
G1 X77.665 Y27.01 E0.3236
G1 X80.528 Y26.036 E0.42418
G1 X81.396 Y25.783 E0.45425
G1 X82.282 Y25.608 E0.48429
G1 X83.526 Y25.497 E0.52583
G1 X84.133 Y25.484 E0.54602
G1 X86.096 Y25.484 E0.61131
G1 X86.942 Y25.495 E0.63945
G1 X87.844 Y25.548 E0.6695
G1 X88.792 Y25.691 E0.70139
G1 X91.375 Y26.206 E0.78899
G1 X93.872 Y26.633 E0.87325
G1 X96.425 Y26.996 E0.95902
G1 X98.895 Y27.276 E1.0417
G1 X101.467 Y27.494 E1.12755
G1 X103.996 Y27.636 E1.21179
G1 X106.521 Y27.706 E1.29581
G1 X109.067 Y27.705 E1.38049
G1 X111.627 Y27.633 E1.46567
G1 X114.124 Y27.49 E1.54886
G1 X116.694 Y27.27 E1.63465
G1 X119.198 Y26.985 E1.71847
G1 X121.719 Y26.625 E1.80317
G1 X123.405 Y26.347 E1.86
G1 X124.189 Y26.249 E1.88628
G1 X125.098 Y26.174 E1.91662
G1 X125.839 Y26.13 E1.94131
G1 X126.772 Y26.102 E1.97235
G1 X158.95 Y26.103 E3.0426
G1 X159.656 Y26.113 E3.06608
G1 X160.199 Y26.132 E3.08415
G1 X160.597 Y26.156 E3.09741
G1 X161.74 Y26.248 E3.13555
G1 X162.636 Y26.36 E3.16558
G1 X163.519 Y26.551 E3.19563
G1 X164.381 Y26.82 E3.22567
G1 X165.217 Y27.163 E3.25572
G1 X166.018 Y27.579 E3.28574
G1 X166.78 Y28.065 E3.3158
G1 X167.495 Y28.616 E3.34582
G1 X168.159 Y29.228 E3.37586
G1 X168.767 Y29.896 E3.4059
G1 X169.313 Y30.615 E3.43593
G1 X169.793 Y31.38 E3.46597
G1 X170.203 Y32.185 E3.49601
G1 X170.541 Y33.022 E3.52604
G1 X170.804 Y33.886 E3.55608
G1 X170.989 Y34.77 E3.58612
G1 X171.095 Y35.667 E3.61616
G1 X171.121 Y36.259 E3.63587
G1 X171.131 Y36.911 E3.65755
G1 X171.131 Y42.162 E3.8322
G1 X171.12 Y42.879 E3.85605
G1 X171.038 Y44.019 E3.89407
G1 X170.833 Y45.619 E3.94772
G1 X170.548 Y48.197 E4.03399
G1 X170.339 Y50.75 E4.11918
G1 X170.205 Y53.24 E4.20212
G1 X170.132 Y56.921 E4.32458
G1 X170.132 Y57.717 E4.35105
G1 X170.169 Y60.323 E4.43774
G1 X170.278 Y62.888 E4.52312
G1 X170.456 Y65.395 E4.60672
G1 X170.706 Y67.921 E4.69114
G1 X170.866 Y69.169 E4.73299
G1 X170.88 Y69.337 E4.7386
G1 X171.041 Y70.609 E4.78124
G1 X171.121 Y71.743 E4.81905
G1 X171.132 Y72.584 E4.84703
G1 X171.131 Y77.602 E5.01393
G1 X171.121 Y78.329 E5.03811
G1 X171.069 Y79.231 E5.06816
G1 X170.937 Y80.124 E5.09818
G1 X170.726 Y81.003 E5.12825
G1 X170.439 Y81.859 E5.15828
G1 X170.077 Y82.686 E5.1883
G1 X169.643 Y83.478 E5.21834
G1 X169.141 Y84.229 E5.24839
G1 X168.575 Y84.932 E5.27841
G1 X167.948 Y85.583 E5.30847
G1 X167.267 Y86.175 E5.33848
G1 X166.536 Y86.705 E5.36851
G1 X165.76 Y87.168 E5.39857
G1 X164.947 Y87.561 E5.4286
G1 X164.102 Y87.881 E5.45865
G1 X163.233 Y88.124 E5.48866
G1 X162.345 Y88.289 E5.5187
G1 X161.818 Y88.35 E5.53635
G1 X161.149 Y88.409 E5.55869
G1 X160.117 Y88.474 E5.59308
G1 X159.184 Y88.502 E5.62413
G1 X149.804 Y88.501 E5.93611
G1 X148.526 Y88.483 E5.97862
G1 X145.919 Y88.483 E6.06533
G1 X143.385 Y88.555 E6.14964
G1 X140.824 Y88.7 E6.23496
G1 X138.335 Y88.912 E6.31804
G1 X135.749 Y89.206 E6.40461
G1 X133.281 Y89.557 E6.48752
G1 X130.77 Y89.988 E6.57225
G1 X128.304 Y90.482 E6.6559
G1 X125.804 Y91.058 E6.74123
G1 X123.345 Y91.698 E6.82574
G1 X120.886 Y92.412 E6.91091
G1 X119.372 Y92.89 E6.96371
G1 X118.5 Y93.123 E6.99373
G1 X117.61 Y93.279 E7.02379
G1 X116.612 Y93.358 E7.05708
G1 X115.973 Y93.373 E7.07834
G1 X79.861 Y93.371 E8.27943
G1 X79.166 Y93.361 E8.30255
G1 X78.265 Y93.308 E8.33257
G1 X77.371 Y93.175 E8.36263
G1 X76.493 Y92.965 E8.39266
G1 X75.637 Y92.677 E8.4227
G1 X74.81 Y92.314 E8.45274
G1 X74.018 Y91.88 E8.48278
G1 X73.268 Y91.378 E8.51279
G1 X72.565 Y90.811 E8.54283
G1 X71.915 Y90.184 E8.57287
G1 X71.323 Y89.502 E8.60291
G1 X70.793 Y88.77 E8.63296
G1 X70.33 Y87.995 E8.66299
G1 X69.938 Y87.181 E8.69304
G1 X69.619 Y86.336 E8.72308
G1 X69.377 Y85.466 E8.75312
G1 X69.212 Y84.578 E8.78316
G1 X69.118 Y83.472 E8.82008
G1 X69.104 Y82.682 E8.84636
G1 X69.115 Y81.939 E8.87107
G1 X69.197 Y80.793 E8.90928
G1 X69.404 Y79.178 E8.96344
G1 X69.687 Y76.617 E9.04914
G1 X69.896 Y74.064 E9.13433
G1 X70.03 Y71.574 E9.21727
G1 X70.103 Y67.893 E9.33973
G1 X70.103 Y52.364 E9.85622
G1 X70.066 Y49.758 E9.94291
G1 X69.957 Y47.19 E10.0284
G1 X69.78 Y44.688 E10.11182
G1 X69.529 Y42.155 E10.19648
G1 X69.195 Y39.537 E10.28426
G1 X69.117 Y38.526 E10.31799
G1 X69.104 Y37.734 E10.34433
G1 X69.114 Y37.044 E10.36728
G1 X69.167 Y36.143 E10.3973
G1 X69.3 Y35.249 E10.42737
G1 X69.511 Y34.371 E10.4574
G1 X69.799 Y33.515 E10.48744
G1 X70.161 Y32.688 E10.51746
G0 F6000 X69.81 Y32.496
G1 F1200 X70.263 Y31.673 E10.54871
G1 X70.766 Y30.923 E10.57875
G1 X71.377 Y30.165 E10.61113
G1 X72.004 Y29.515 E10.64117
G1 X72.712 Y28.899 E10.67238
G1 X73.472 Y28.348 E10.7036
G1 X74.307 Y27.849 E10.73595
G1 X75.155 Y27.442 E10.76724
G1 X76.08 Y27.097 E10.80008
G1 X77.536 Y26.631 E10.85092
G1 X80.416 Y25.652 E10.95209
G1 X81.284 Y25.399 E10.98217
G1 X82.246 Y25.21 E11.01477
G1 X83.517 Y25.097 E11.05721
G1 X84.124 Y25.084 E11.07741
G1 X86.101 Y25.084 E11.14316
G1 X86.965 Y25.096 E11.1719
G1 X87.904 Y25.152 E11.20319
G1 X88.852 Y25.295 E11.23508
G1 X91.449 Y25.813 E11.32315
G1 X93.928 Y26.237 E11.4068
G1 X96.481 Y26.6 E11.49257
G1 X98.929 Y26.877 E11.57451
G1 X101.501 Y27.096 E11.66037
G1 X104.007 Y27.236 E11.74385
G1 X106.532 Y27.306 E11.82786
G1 X109.056 Y27.305 E11.91181
G1 X111.616 Y27.233 E11.99699
G1 X114.09 Y27.092 E12.07941
G1 X116.66 Y26.872 E12.1652
G1 X119.141 Y26.589 E12.24825
G1 X121.654 Y26.23 E12.33268
G1 X123.355 Y25.95 E12.39002
G1 X124.156 Y25.85 E12.41687
G1 X125.074 Y25.775 E12.4475
G1 X125.827 Y25.73 E12.47259
G1 X126.772 Y25.702 E12.50404
G1 X158.956 Y25.703 E13.57448
G1 X159.67 Y25.713 E13.59823
G1 X160.223 Y25.733 E13.61664
G1 X160.629 Y25.757 E13.63016
G1 X161.79 Y25.851 E13.6689
G1 X162.721 Y25.969 E13.70012
G1 X163.638 Y26.169 E13.73133
G1 X164.5 Y26.438 E13.76137
G1 X165.369 Y26.793 E13.79259
G1 X166.233 Y27.242 E13.82498
G1 X167.024 Y27.748 E13.85621
G1 X167.739 Y28.299 E13.88623
G1 X168.455 Y28.959 E13.91862
G1 X169.086 Y29.654 E13.94984
G1 X169.652 Y30.402 E13.98104
G1 X170.132 Y31.167 E14.01108
G1 X170.574 Y32.035 E14.04347
G1 X170.924 Y32.906 E14.07469
G1 X171.196 Y33.804 E14.1059
G1 X171.381 Y34.688 E14.13594
G1 X171.495 Y35.649 E14.16813
G1 X171.521 Y36.253 E14.18824
G1 X171.531 Y36.905 E14.20992
G1 X171.531 Y42.168 E14.38497
G1 X171.519 Y42.908 E14.40959
G1 X171.435 Y44.07 E14.44834
G1 X171.23 Y45.67 E14.50199
G1 X170.946 Y48.241 E14.58802
G1 X170.737 Y50.783 E14.67285
G1 X170.605 Y53.248 E14.75496
G1 X170.532 Y56.929 E14.87741
G1 X170.532 Y57.717 E14.90362
G1 X170.569 Y60.306 E14.98974
G1 X170.678 Y62.871 E15.07513
G1 X170.854 Y65.356 E15.15799
G1 X171.103 Y67.87 E15.24201
G1 X171.265 Y69.136 E15.28446
G1 X171.279 Y69.3 E15.28994
G1 X171.44 Y70.581 E15.33288
G1 X171.521 Y71.738 E15.37145
G1 X171.532 Y72.584 E15.39959
G1 X171.531 Y77.608 E15.56669
G1 X171.52 Y78.352 E15.59144
G1 X171.465 Y79.289 E15.62266
G1 X171.333 Y80.182 E15.65268
G1 X171.115 Y81.096 E15.68394
G1 X170.818 Y81.986 E15.71514
G1 X170.428 Y82.878 E15.74752
G1 X169.976 Y83.7 E15.77872
G1 X169.453 Y84.48 E15.80996
G1 X168.887 Y85.183 E15.83998
G1 X168.21 Y85.885 E15.87241
G1 X167.502 Y86.499 E15.90358
G1 X166.741 Y87.049 E15.93481
G1 X165.965 Y87.512 E15.96487
G1 X165.089 Y87.935 E15.99722
G1 X164.244 Y88.255 E16.02728
G1 X163.306 Y88.517 E16.05967
G1 X162.391 Y88.686 E16.09062
G1 X161.853 Y88.748 E16.10863
G1 X161.174 Y88.808 E16.1313
G1 X160.129 Y88.874 E16.16613
G1 X159.184 Y88.902 E16.19757
G1 X149.798 Y88.901 E16.50975
G1 X148.52 Y88.883 E16.55226
G1 X145.93 Y88.883 E16.6384
G1 X143.396 Y88.955 E16.72272
G1 X140.858 Y89.099 E16.80727
G1 X138.369 Y89.31 E16.89035
G1 X135.805 Y89.602 E16.97618
G1 X133.337 Y89.953 E17.05909
G1 X130.845 Y90.381 E17.14319
G1 X128.394 Y90.872 E17.22633
G1 X125.894 Y91.448 E17.31166
G1 X123.452 Y92.083 E17.39558
G1 X120.998 Y92.796 E17.48058
G1 X119.475 Y93.276 E17.53369
G1 X118.569 Y93.517 E17.56487
G1 X117.642 Y93.678 E17.59616
G1 X116.644 Y93.757 E17.62946
G1 X115.973 Y93.773 E17.65179
G1 X79.855 Y93.771 E18.85308
G1 X79.16 Y93.761 E18.87619
G1 X78.206 Y93.704 E18.90798
G1 X77.312 Y93.571 E18.93804
G1 X76.365 Y93.344 E18.97043
G1 X75.509 Y93.056 E19.00047
G1 X74.618 Y92.665 E19.03283
G1 X73.826 Y92.231 E19.06287
G1 X73.017 Y91.689 E19.09526
G1 X72.287 Y91.099 E19.12648
G1 X71.637 Y90.472 E19.15652
G1 X70.999 Y89.737 E19.18889
G1 X70.469 Y89.005 E19.21895
G1 X69.97 Y88.169 E19.25133
G1 X69.578 Y87.355 E19.28138
G1 X69.234 Y86.443 E19.3138
G1 X68.984 Y85.539 E19.34499
G1 X68.813 Y84.612 E19.37634
G1 X68.719 Y83.506 E19.41326
G1 X68.704 Y82.676 E19.44087
G1 X68.716 Y81.91 E19.46635
G1 X68.8 Y80.742 E19.5053
G1 X69.007 Y79.127 E19.55946
G1 X69.289 Y76.573 E19.64492
G1 X69.498 Y74.031 E19.72975
G1 X69.63 Y71.566 E19.81186
G1 X69.703 Y67.885 E19.93431
G1 X69.703 Y52.364 E20.45054
G1 X69.666 Y49.764 E20.53703
G1 X69.557 Y47.207 E20.62215
G1 X69.381 Y44.716 E20.70521
G1 X69.132 Y42.206 E20.7891
G1 X68.796 Y39.568 E20.87755
G1 X68.717 Y38.533 E20.91207
G1 X68.704 Y37.728 E20.93885
G1 X68.714 Y37.038 E20.9618
G1 X68.771 Y36.084 E20.99359
G1 X68.904 Y35.19 E21.02365
G1 X69.132 Y34.243 E21.05605
G1 X69.42 Y33.387 E21.08609
G1 X69.81 Y32.496 E21.11844
G0 F6000 X69.46 Y32.303
G1 F1200 X69.931 Y31.45 E21.15085
G1 X70.434 Y30.7 E21.18088
G1 X71.089 Y29.887 E21.21561
G1 X71.741 Y29.213 E21.2468
G1 X72.449 Y28.597 E21.27801
G1 X73.237 Y28.024 E21.31041
G1 X74.134 Y27.488 E21.34517
G1 X75.015 Y27.067 E21.37765
G1 X75.958 Y26.716 E21.41111
G1 X77.407 Y26.252 E21.46172
G1 X80.304 Y25.268 E21.56348
G1 X81.172 Y25.015 E21.59355
G1 X82.211 Y24.812 E21.62876
G1 X83.508 Y24.697 E21.67207
G1 X84.115 Y24.684 E21.69226
G1 X86.107 Y24.684 E21.75851
G1 X86.989 Y24.697 E21.78785
G1 X87.964 Y24.756 E21.82034
G1 X88.912 Y24.899 E21.85223
G1 X91.523 Y25.42 E21.94078
G1 X93.984 Y25.841 E22.02382
G1 X96.537 Y26.204 E22.10959
G1 X98.963 Y26.478 E22.19079
G1 X101.535 Y26.698 E22.27665
G1 X104.018 Y26.836 E22.35936
G1 X106.543 Y26.906 E22.44338
G1 X109.045 Y26.905 E22.52659
G1 X111.605 Y26.833 E22.61177
G1 X114.056 Y26.694 E22.69343
G1 X116.626 Y26.474 E22.77922
G1 X119.084 Y26.193 E22.8615
G1 X121.589 Y25.835 E22.94567
G1 X123.305 Y25.553 E23.00351
G1 X124.123 Y25.451 E23.03092
G1 X125.05 Y25.376 E23.06186
G1 X125.815 Y25.33 E23.08735
G1 X126.772 Y25.302 E23.11919
G1 X158.962 Y25.303 E24.18983
G1 X159.684 Y25.313 E24.21385
G1 X160.661 Y25.358 E24.24638
G1 X161.84 Y25.454 E24.28572
G1 X162.806 Y25.578 E24.31812
G1 X163.757 Y25.787 E24.3505
G1 X164.619 Y26.056 E24.38054
G1 X165.553 Y26.438 E24.4141
G1 X166.449 Y26.905 E24.4477
G1 X167.24 Y27.411 E24.47894
G1 X167.983 Y27.982 E24.5101
G1 X168.751 Y28.69 E24.54484
G1 X169.405 Y29.413 E24.57727
G1 X169.991 Y30.189 E24.60961
G1 X170.471 Y30.954 E24.63965
G1 X170.945 Y31.886 E24.67443
G1 X171.307 Y32.79 E24.70682
G1 X171.588 Y33.722 E24.73919
G1 X171.773 Y34.606 E24.76923
G1 X171.895 Y35.632 E24.8036
G1 X171.921 Y36.247 E24.82407
G1 X171.931 Y36.899 E24.84576
G1 X171.931 Y42.174 E25.0212
G1 X171.918 Y42.937 E25.04659
G1 X171.832 Y44.121 E25.08607
G1 X171.627 Y45.721 E25.13972
G1 X171.344 Y48.285 E25.22552
G1 X171.135 Y50.816 E25.30999
G1 X171.005 Y53.256 E25.39126
G1 X170.932 Y56.937 E25.51371
G1 X170.932 Y57.717 E25.53965
G1 X170.969 Y60.289 E25.62521
G1 X171.078 Y62.854 E25.7106
G1 X171.252 Y65.317 E25.79272
G1 X171.5 Y67.819 E25.87634
G1 X171.664 Y69.102 E25.91936
G1 X171.678 Y69.266 E25.92484
G1 X171.839 Y70.553 E25.96798
G1 X171.921 Y71.733 E26.00732
G1 X171.932 Y72.584 E26.03563
G1 X171.931 Y77.614 E26.20293
G1 X171.919 Y78.375 E26.22824
G1 X171.861 Y79.347 E26.26063
G1 X171.729 Y80.24 E26.29065
G1 X171.504 Y81.189 E26.32309
G1 X171.185 Y82.146 E26.35664
G1 X170.779 Y83.071 E26.39024
G1 X170.327 Y83.893 E26.42144
G1 X169.765 Y84.731 E26.455
G1 X169.175 Y85.461 E26.48622
G1 X168.498 Y86.163 E26.51866
G1 X167.764 Y86.801 E26.551
G1 X166.946 Y87.393 E26.58459
G1 X166.17 Y87.856 E26.61464
G1 X165.231 Y88.309 E26.64932
G1 X164.386 Y88.629 E26.67937
G1 X163.379 Y88.91 E26.71414
G1 X162.437 Y89.083 E26.746
G1 X161.888 Y89.146 E26.76438
G1 X161.199 Y89.207 E26.78738
G1 X160.141 Y89.274 E26.82264
G1 X159.184 Y89.302 E26.85449
G1 X149.792 Y89.301 E27.16686
G1 X148.514 Y89.283 E27.20937
G1 X145.941 Y89.283 E27.29495
G1 X143.407 Y89.355 E27.37927
G1 X140.892 Y89.498 E27.46305
G1 X138.403 Y89.708 E27.54613
G1 X135.861 Y89.998 E27.63123
G1 X133.393 Y90.349 E27.71414
G1 X130.92 Y90.774 E27.7976
G1 X128.484 Y91.262 E27.88023
G1 X125.984 Y91.838 E27.96556
G1 X123.559 Y92.468 E28.04889
G1 X121.118 Y93.178 E28.13344
G1 X119.578 Y93.663 E28.18714
G1 X118.672 Y93.904 E28.21833
G1 X117.674 Y94.077 E28.25201
G1 X116.676 Y94.156 E28.28531
G1 X115.973 Y94.173 E28.3087
G1 X79.849 Y94.171 E29.51019
G1 X79.136 Y94.16 E29.53391
G1 X78.147 Y94.1 E29.56686
G1 X77.253 Y93.967 E29.59692
G1 X76.237 Y93.723 E29.63168
G1 X75.381 Y93.435 E29.66172
G1 X74.426 Y93.016 E29.6964
G1 X73.603 Y92.563 E29.72765
G1 X72.794 Y92.021 E29.76004
G1 X72.009 Y91.387 E29.7936
G1 X71.359 Y90.76 E29.82363
G1 X70.675 Y89.972 E29.85834
G1 X70.145 Y89.24 E29.8884
G1 X69.61 Y88.343 E29.92314
G1 X69.204 Y87.496 E29.95438
G1 X68.848 Y86.55 E29.98799
G1 X68.598 Y85.646 E30.01919
G1 X68.414 Y84.646 E30.05301
G1 X68.32 Y83.54 E30.08993
G1 X68.304 Y82.67 E30.11887
G1 X68.317 Y81.881 E30.14511
G1 X68.403 Y80.691 E30.1848
G1 X68.61 Y79.076 E30.23895
G1 X68.891 Y76.529 E30.32418
G1 X69.1 Y73.998 E30.40865
G1 X69.23 Y71.558 E30.48992
G1 X69.303 Y67.877 E30.61237
G1 X69.303 Y52.364 E31.12834
G1 X69.266 Y49.77 E31.21462
G1 X69.157 Y47.224 E31.29938
G1 X68.982 Y44.744 E31.38207
G1 X68.735 Y42.257 E31.46519
G1 X68.397 Y39.598 E31.55434
G1 X68.317 Y38.539 E31.58967
G1 X68.304 Y37.722 E31.61684
G1 X68.315 Y37.014 E31.6404
G1 X68.375 Y36.025 E31.67335
G1 X68.508 Y35.131 E31.70341
G1 X68.743 Y34.149 E31.737
G1 X69.041 Y33.259 E31.76821
G1 X69.46 Y32.303 E31.80293
G1 F2700 E26.80293
G0 F6000 X79.503 Y37.384
G1 F2700 E31.80293
G1 F1200 X81.882 Y37.384 E31.88206
G1 X82.168 Y37.365 E31.89159
G1 X82.195 Y37.361 E31.8925
G1 X82.584 Y37.282 E31.9057
G1 X82.621 Y37.27 E31.90699
G1 X82.993 Y37.114 E31.92041
G1 X83.029 Y37.095 E31.92176
G1 X83.356 Y36.872 E31.93493
G1 X83.387 Y36.846 E31.93627
G1 X83.675 Y36.547 E31.95008
G1 X83.697 Y36.519 E31.95127
G1 X83.969 Y36.112 E31.96755
G1 X84.003 Y36.001 E31.97141
G1 X84.003 Y35.884 E31.9753
G1 X86.603 Y35.884 E32.06178
G1 X86.603 Y36.001 E32.06567
G1 X86.635 Y36.11 E32.06945
G1 X86.909 Y36.534 E32.08624
G1 X86.934 Y36.565 E32.08756
G1 X87.213 Y36.851 E32.10085
G1 X87.244 Y36.877 E32.1022
G1 X87.575 Y37.1 E32.11547
G1 X87.61 Y37.118 E32.11678
G1 X87.979 Y37.273 E32.13009
G1 X88.016 Y37.285 E32.13138
G1 X88.397 Y37.362 E32.14431
G1 X88.424 Y37.366 E32.14522
G1 X88.712 Y37.385 E32.15482
G1 X91.103 Y37.385 E32.23435
G1 X91.103 Y38.057 E32.2567
G1 X79.503 Y38.056 E32.64251
G1 X79.503 Y37.384 E32.66486
G1 F2700 E27.66486
G0 F6000 X82.72 Y37.656
G1 F2700 E32.66486
G1 F1200 X82.776 Y37.639 E32.66681
G1 X83.148 Y37.483 E32.68023
G1 X83.254 Y37.426 E32.68423
G1 X83.581 Y37.203 E32.6974
G1 X83.675 Y37.123 E32.7015
G1 X83.963 Y36.824 E32.71531
G1 X84.03 Y36.741 E32.71886
